airbyte/airbyte-config/init/src/main/resources/icons/notion.svg

<svg xmlns="http://www.w3.org/2000/svg" width="48" height="48" fill="none" viewBox="0 0 48 48"><path fill="#fff" d="M24 48C37.2548 48 48 37.2548 48 24C48 10.7452 37.2548 0 24 0C10.7452 0 0 10.7452 0 24C0 37.2548 10.7452 48 24 48Z"/><path fill="#000" fill-rule="evenodd" d="M28.4602 9.06842L11.8104 10.2936C10.4679 10.4098 10 11.285 10 12.3342V30.5316C10 31.3492 10.2916 32.048 10.993 32.982L14.9069 38.0563C15.5498 38.8734 16.134 39.0482 17.3616 38.9897L36.6969 37.823C38.3322 37.7069 38.8 36.9481 38.8 35.665V15.1925C38.8 14.5292 38.5374 14.3376 37.7632 13.7728C37.7206 13.7418 37.6764 13.7096 37.6307 13.6761L32.3159 9.94338C31.0308 9.01056 30.5048 8.89318 28.4602 9.06842ZM17.8 14.8567C16.2214 14.9632 15.8627 14.9874 14.9662 14.2596L12.6865 12.4516C12.454 12.2178 12.5706 11.9262 13.1544 11.8683L29.1613 10.7017C30.5045 10.5848 31.2054 11.0522 31.7314 11.4602L34.4769 13.4435C34.5938 13.5016 34.8854 13.8511 34.5347 13.8511L18.0038 14.843L17.8 14.8567ZM15.9587 35.4897V18.1093C15.9587 17.3512 16.1924 17.001 16.893 16.9421L35.8782 15.8343C36.5222 15.776 36.8138 16.1846 36.8138 16.9421V34.206C36.8138 34.9648 36.6966 35.6072 35.6447 35.665L17.4773 36.7155C16.4259 36.7733 15.9587 36.4238 15.9587 35.4897ZM33.8936 19.0416C34.0101 19.5671 33.8936 20.092 33.3668 20.1511L32.4914 20.3254V33.1567C31.7314 33.5649 31.0306 33.7983 30.4466 33.7983C29.5116 33.7983 29.2774 33.5064 28.5771 32.632L22.8513 23.65V32.3404L24.6631 32.7489C24.6631 32.7489 24.6631 33.7983 23.2014 33.7983L19.1716 34.0319C19.0545 33.7983 19.1716 33.2155 19.5803 33.0987L20.6319 32.8075V21.3172L19.1718 21.2003C19.0547 20.6749 19.3463 19.9173 20.1648 19.8585L24.4879 19.5673L30.4466 28.6662V20.617L28.9274 20.4428C28.8107 19.8004 29.2774 19.334 29.8617 19.2761L33.8936 19.0416Z" clip-rule="evenodd"/></svg>

<svg xmlns="http://www.w3.org/2000/svg" width="48" height="48" fill="none"><path fill="#fff" d="M24 48c13.255 0 24-10.745 24-24S37.255 0 24 0 0 10.745 0 24s10.745 24 24 24Z"/><path fill="#000" fill-rule="evenodd" d="m28.46 9.068-16.65 1.226c-1.342.116-1.81.991-1.81 2.04v18.198c0 .817.292 1.516.993 2.45l3.914 5.074c.643.817 1.227.992 2.455.934l19.335-1.167c1.635-.116 2.103-.875 2.103-2.158V15.193c0-.664-.263-.855-1.037-1.42a46.72 46.72 0 0 1-.132-.097l-5.315-3.733c-1.285-.932-1.811-1.05-3.856-.875ZM17.8 14.857c-1.579.106-1.937.13-2.834-.597l-2.28-1.808c-.232-.234-.115-.526.468-.584l16.007-1.166c1.343-.117 2.044.35 2.57.758l2.746 1.983c.117.059.408.408.058.408l-16.531.992-.204.014ZM15.959 35.49V18.11c0-.759.233-1.109.934-1.168l18.985-1.108c.644-.058.936.35.936 1.108v17.264c0 .759-.117 1.401-1.17 1.459l-18.167 1.05c-1.051.058-1.518-.291-1.518-1.225Zm17.935-16.448c.116.525 0 1.05-.527 1.11l-.876.173v12.832c-.76.408-1.46.641-2.044.641-.935 0-1.17-.292-1.87-1.166l-5.726-8.982v8.69l1.812.409s0 1.05-1.462 1.05l-4.03.233c-.116-.234 0-.816.41-.933l1.05-.291v-11.49l-1.46-.118c-.116-.525.175-1.283.994-1.341l4.323-.292 5.959 9.1v-8.05l-1.52-.174c-.116-.643.35-1.109.935-1.167l4.032-.234Z" clip-rule="evenodd"/></svg>
